X: 8
T: Hellas qu'elle est a mon gr\`e
N: Derived from Jap3008-Hellas_quelle_est_a_mon_gre.krn
C: Jean Japart
%%abc-version 2.0
%%abcx-abcm2ps-target-version 5.9.1 (29 Sep 2008)
%%abc-creator hum2abc beta
%%abcx-conversion-date 2019/02/16 20:40:05
%%abc-edited-by Jesse Rodin
%%abc-edited-by Chris Gage 09-11-2013
%%abcx-initial-encoding-date 2013/10/20/
%%humdrum-veritas 3022097018
%%humdrum-veritas-data 176134328
%%linebreak <none>
%%barnumbers 0
L: 1/4
M: 2/1
Q: 1/2=120
%%staves [1 2 3 4]
V: 1 clef=treble
V: 2 clef=treble
V: 3 clef=treble
V: 4 clef=bass
K: C
[V:1] z8 | 
[V:2] A4c4 | 
[V:3] z8 | 
[V:4] A,6G,F, | 
[V:1] z8 | 
[V:2] B4A4 | 
[V:3] D4F4 | 
[V:4] G,4F,4 | 
[V:1] z8 | 
[V:2] G3AB4 | 
[V:3] E4D4 | 
[V:4] C4B,2G,2 | 
[V:1] z8 | 
[V:2] c8 | 
[V:3] C3DE2F2- | 
[V:4] A,2C3B,A,2 | 
[V:1] z8 | 
[V:2] B4A4 | 
[V:3] F2E2F4 | 
[V:4] G,4F,3D, | 
[V:1] z8 | 
[V:2] G2A2B2G2- | 
[V:3] z8 | 
[V:4] E,2F,2G,4 | 
[V:1] z8 | 
[V:2] G2^F2G3A | 
[V:3] z8 | 
[V:4] A,4G,2G,2- | 
[V:1] d4f4 | 
[V:2] Bcd3cB2- | 
[V:3] z8 | 
[V:4] G,A,B,CD3C | 
[V:1] e4d4 | 
[V:2] BAA4^G2 | 
[V:3] A4B4 | 
[V:4] A,2C2B,4 | 
[V:1] c3de2f2- | 
[V:2] A2c4B2 | 
[V:3] c2A3GF2 | 
[V:4] A,3B,C2D2 | 
[V:1] f2e2f4 | 
[V:2] c4A2d2- | 
[V:3] G4F4 | 
[V:4] C4F,2_B,2- | 
[V:1] z8 | 
[V:2] dcB2c4 | 
[V:3] G4E4 | 
[V:4] B,A,G,2A,4 | 
[V:1] f6e2 | 
[V:2] d4c2A2- | 
[V:3] D4z2C2 | 
[V:4] D,4A,4 | 
[V:1] d4c2c2- | 
[V:2] AGG4^F2 | 
[V:3] D2B,2C4 | 
[V:4] B,4A,4 | 
[V:1] c2BAB4 | 
[V:2] G8 | 
[V:3] D8 | 
[V:4] G,8 | 
[V:1] [M:3/1]c12 | 
[V:2] [M:3/1]E8A4- | 
[V:3] [M:3/1]C12 | 
[V:4] [M:3/1]A,8A,4 | 
[V:1] [M:3/1]z12 | 
[V:2] [M:3/1]A4G8 | 
[V:3] [M:3/1]D8D4 | 
[V:4] B,8B,4 | 
[V:1] z12 | 
[V:2] A12- | 
[V:3] E8E4 | 
[V:4] A,8A,4 | 
[V:1] d8d4 | 
[V:2] A12 | 
[V:3] F8F4 | 
[V:4] D8D4 | 
[V:1] e8e4 | 
[V:2] c8c4 | 
[V:3] C12 | 
[V:4] A,8A,4 | 
[V:1] f8f4 | 
[V:2] A4D2E2F2G2 | 
[V:3] z4z4D4 | 
[V:4] D6C2B,4 | 
[V:1] c8c4 | 
[V:2] A8G4 | 
[V:3] E8E4 | 
[V:4] A,8C4 | 
[V:1] e8e4 | 
[V:2] c4B4c4 | 
[V:3] E6F2G4 | 
[V:4] C4E8 | 
[V:1] f4e6d2 | 
[V:2] d4c4d4 | 
[V:3] A8F4 | 
[V:4] D4A,4B,4- | 
[V:1] d6^c2c2B2 | 
[V:2] G4A8 | 
[V:3] D4E8 | 
[V:4] B,4A,8 | 
[V:1] d12 ]|:  
[V:2] A12 ]|:  
[V:3] D12 ]|:  
[V:4] D,12 ]|:  
[V:1]  [K:C] [M:2/1]d4d4 | 
[V:2]  [K:C] [M:2/1]A4B4 | 
[V:3]  [K:C] [M:2/1]z8 | 
[V:4]  [K:C] [M:2/1]D8 | 
[V:1] e4e4 | 
[V:2] c2A3GFE | 
[V:3] z8 | 
[V:4] C4C4 | 
[V:1] f4f4 | 
[V:2] D2F4G2 | 
[V:3] D4D4 | 
[V:4] _B,4B,4 | 
[V:1] c8 | 
[V:2] A8- | 
[V:3] E4E4 | 
[V:4] A,8 | 
[V:1] z8 | 
[V:2] A8- | 
[V:3] F4F4 | 
[V:4] D6CB, | 
[V:1] e4e2e2 | 
[V:2] A8 | 
[V:3] C8 | 
[V:4] A,8 | 
[V:1] e4g4 | 
[V:2] z4E4 | 
[V:3] E4E2E2 | 
[V:4] C4C2C2 | 
[V:1] f2ededcB | 
[V:2] F4E4 | 
[V:3] D4G4 | 
[V:4] D4C4 | 
[V:1] A2d4^c2 | 
[V:2] F2G2A4 | 
[V:3] F2D2E4 | 
[V:4] D2B,2A,4 | 
[V:1] d8 :|]  
[V:2] A8 :|]  
[V:3] D8 :|]  
[V:4] D,8 :|]  
[V:1]  [K:C] [M:3/1]z12 | 
[V:2]  [K:C] [M:3/1]A8B4 | 
[V:3]  [K:C] [M:3/1]F8F4 | 
[V:4]  [K:C] [M:3/1]D8D4 | 
[V:1] z12 | 
[V:2] c6B2G4 | 
[V:3] E8D4 | 
[V:4] C8B,4 | 
[V:1] z12 | 
[V:2] A4B8 | 
[V:3] C4D4E4 | 
[V:4] A,4G,8 | 
[V:1] z12 | 
[V:2] A8z4 | 
[V:3] F8z4 | 
[V:4] F,6G,2A,4 | 
[V:1] f8f4 | 
[V:2] d8d4 | 
[V:3] z12 | 
[V:4] D,8D,4 | 
[V:1] e8d4 | 
[V:2] c6A2B4 | 
[V:3] z12 | 
[V:4] A,4C4G,4 | 
[V:1] c4d4e4 | 
[V:2] A4G8 | 
[V:3] z12 | 
[V:4] A,4B,4C4 | 
[V:1] f8z4 | 
[V:2] F8E4 | 
[V:3] z12 | 
[V:4] F,6E,D,C,4 | 
[V:1] z12 | 
[V:2] D8C4 | 
[V:3] F8E4 | 
[V:4] D,4F,2G,2A,4 | 
[V:1] f8e4 | 
[V:2] D4A6G2 | 
[V:3] D8C4 | 
[V:4] D,8A,4 | 
[V:1] d8c4 | 
[V:2] G4A6G2 | 
[V:3] D4E8 | 
[V:4] B,4A,8 | 
[V:1] d4e6d2 | 
[V:2] F4E4G4- | 
[V:3] F4G4C4- | 
[V:4] D4C6B,2 | 
[V:1] c8B4 | 
[V:2] G2F2G4G4 | 
[V:3] C4D8 | 
[V:4] A,4G,8 | 
[V:1] c12 | 
[V:2] E8A4- | 
[V:3] C8C4 | 
[V:4] A,8A,4 | 
[V:1] z12 | 
[V:2] A4G8 | 
[V:3] D8D4 | 
[V:4] B,8B,4 | 
[V:1] z12 | 
[V:2] A12- | 
[V:3] E8E4 | 
[V:4] A,8A,4 | 
[V:1] d8d4 | 
[V:2] A12 | 
[V:3] F8F4 | 
[V:4] D8D4 | 
[V:1] e8e4 | 
[V:2] c8c4 | 
[V:3] C12 | 
[V:4] A,8A,4 | 
[V:1] f8f4 | 
[V:2] A4D2E2F2G2 | 
[V:3] z4z4D4 | 
[V:4] D6C2B,4 | 
[V:1] c8c4 | 
[V:2] A8G4 | 
[V:3] E6D2E2F2 | 
[V:4] A,8C4- | 
[V:1] e6d2e2f2 | 
[V:2] c8c4 | 
[V:3] G6F2E2D2 | 
[V:4] C12 | 
[V:1] g6f2e2d2 | 
[V:2] c4B4c4 | 
[V:3] E4z2F2G4 | 
[V:4] C4E8 | 
[V:1] f4e6d2 | 
[V:2] d4c4d4 | 
[V:3] A6G2F4 | 
[V:4] D4A,4_B,4- | 
[V:1] d6^c2c2B2 | 
[V:2] G4A8 | 
[V:3] D4E8 | 
[V:4] B,4A,8 | 
[V:1] d12 |]  
[V:2] A12 |]  
[V:3] D12 |]  
[V:4] D,12 |]  



